local/templates/main/img/svg/logos/code.svg

<svg width="162" height="42" viewBox="0 0 162 42" fill="none" xmlns="http://www.w3.org/2000/svg">
<path d="M50.3589 4.50024H54.7643L54.7405 10.4931H55.5359L60.3492 4.50024H65.6146L59.0065 12.1961L65.9308 20.3917H60.4818L55.5325 14.307H54.7371L54.7609 20.3917H50.3555V4.50024H50.3589Z" fill="#424346"/>
<path d="M65.3154 12.4918V12.4476C65.3154 7.88585 68.9934 4.18408 73.8985 4.18408C78.8036 4.18408 82.434 7.83826 82.434 12.4034V12.4476C82.434 17.0094 78.756 20.7112 73.8509 20.7112C68.9492 20.7112 65.3154 17.057 65.3154 12.4918ZM77.9164 12.4918V12.4476C77.9164 10.1327 76.2814 8.15779 73.8509 8.15779C71.4205 8.15779 69.8092 10.109 69.8092 12.4034V12.4476C69.8092 14.7421 71.468 16.7375 73.8951 16.7375C76.3052 16.7375 77.9164 14.7863 77.9164 12.4918Z" fill="#424346"/>
<path d="M84.9189 16.384L90.1164 4.28271H94.9535L100.131 16.384H102.105V23.7162H98.0196V20.2897H87.0299V23.7162H82.9678V16.384H84.9189ZM89.4127 16.5404H95.5415L92.4754 8.77651L89.4127 16.5404Z" fill="#424346"/>
<path d="M51.124 35.77C50.264 34.91 49.7949 33.6761 49.7949 31.8609C49.7949 28.013 51.2022 26.1536 54.2377 25.6369L57.2087 25.1372L57.5044 26.8742L54.5641 27.3433C52.6707 27.673 51.8107 28.4991 51.5761 30.1579C52.2492 29.4372 53.3267 28.9546 54.5776 28.9546C57.0013 28.9546 58.4086 30.5182 58.4086 32.7243C58.4086 35.0698 56.6716 36.8986 54.061 36.8986C52.7829 36.8986 51.7665 36.4125 51.124 35.77ZM56.5356 32.7515C56.5356 31.3612 55.645 30.3754 54.2071 30.3754C52.6435 30.3754 51.6883 31.4394 51.6883 32.8161C51.6883 34.254 52.6877 35.2873 54.095 35.2873C55.5498 35.2873 56.5356 34.2064 56.5356 32.7515Z" fill="#424346"/>
<path d="M59.8936 32.6121V32.5815C59.8936 30.2191 61.566 28.2815 63.9285 28.2815C66.5561 28.2815 67.8852 30.3448 67.8852 32.7243C67.8852 32.8977 67.8682 33.0676 67.8546 33.2546H61.7869C61.9909 34.6007 62.9427 35.3485 64.163 35.3485C65.0842 35.3485 65.7436 35.0052 66.3997 34.3627L67.5112 35.3485C66.7294 36.2867 65.6519 36.8952 64.1324 36.8952C61.7393 36.8986 59.8936 35.1615 59.8936 32.6121ZM66.0088 32.0037C65.883 30.7833 65.1658 29.8315 63.9115 29.8315C62.7557 29.8315 61.9399 30.7221 61.7699 32.0037H66.0088Z" fill="#424346"/>
<path d="M69.9049 34.4273C70.7173 35.0052 71.6861 35.3485 72.6889 35.3485C73.8786 35.3485 74.5347 34.927 74.5347 34.254C74.5347 33.6115 73.9092 33.2546 72.7977 33.2546H70.9995V31.8643H72.7807C73.797 31.8643 74.3137 31.4904 74.3137 30.8479C74.3137 30.2225 73.7189 29.8316 72.6889 29.8316C71.7201 29.8316 70.8737 30.1613 70.0477 30.7698L69.0483 29.5664C70.0341 28.7676 71.2068 28.2849 72.7875 28.2849C74.8678 28.2849 76.1799 29.2401 76.1799 30.6134V30.6304C76.1799 31.6298 75.5544 32.177 74.725 32.5068C75.6802 32.7583 76.3975 33.3668 76.3975 34.4307V34.4477C76.3975 35.7938 75.0683 36.902 72.6923 36.902C71.1592 36.902 69.9729 36.4635 68.9531 35.7122L69.9049 34.4273Z" fill="#424346"/>
<path d="M77.8623 32.6291V32.5985C77.8623 30.2361 79.7387 28.2815 82.2711 28.2815C84.8035 28.2815 86.6663 30.2055 86.6663 32.5679V32.5985C86.6663 34.944 84.7899 36.8986 82.2405 36.8986C79.7217 36.8986 77.8623 34.9746 77.8623 32.6291ZM84.7729 32.6291V32.5985C84.7729 31.1437 83.726 29.9403 82.2405 29.9403C80.7245 29.9403 79.7523 31.1301 79.7523 32.5679V32.5985C79.7523 34.0364 80.7992 35.2397 82.2711 35.2397C83.8042 35.2397 84.7729 34.05 84.7729 32.6291Z" fill="#424346"/>
<path d="M88.5732 28.4514H96.1739V36.7082H94.2806V30.1544H90.4802V36.7082H88.5732V28.4514Z" fill="#424346"/>
<path d="M97.9854 34.332V34.3014C97.9854 32.5202 99.3926 31.6432 101.412 31.6432C102.333 31.6432 102.992 31.7826 103.631 31.9865V31.7826C103.631 30.6098 102.911 29.9844 101.582 29.9844C100.661 29.9844 99.9705 30.1883 99.2193 30.501L98.7026 29.0156C99.6238 28.6077 100.518 28.3425 101.83 28.3425C103.064 28.3425 103.988 28.6723 104.566 29.2637C105.175 29.8586 105.457 30.7322 105.457 31.8132V36.7081H103.611V35.6747C103.047 36.3477 102.187 36.878 100.922 36.878C99.3756 36.8814 97.9854 35.9908 97.9854 34.332ZM103.662 33.7371V33.1762C103.176 32.9893 102.537 32.8465 101.786 32.8465C100.565 32.8465 99.8447 33.3632 99.8447 34.2232V34.2538C99.8447 35.0526 100.548 35.5047 101.456 35.5047C102.707 35.5047 103.662 34.7875 103.662 33.7371Z" fill="#424346"/>
<path d="M107.272 32.6291V32.5985C107.272 30.2531 109.088 28.2815 111.572 28.2815C113.119 28.2815 114.091 28.8594 114.873 29.7058L113.683 30.9737C113.106 30.3788 112.494 29.9403 111.556 29.9403C110.179 29.9403 109.162 31.1301 109.162 32.5679V32.5985C109.162 34.067 110.179 35.2397 111.634 35.2397C112.524 35.2397 113.167 34.8318 113.775 34.2234L114.917 35.3485C114.105 36.2561 113.15 36.8952 111.538 36.8952C109.088 36.8986 107.272 34.9746 107.272 32.6291Z" fill="#424346"/>
<path d="M116.642 28.4514H118.549V31.6875H122.363V28.4514H124.256V36.7082H122.363V33.4245H118.549V36.7082H116.642V28.4514Z" fill="#424346"/>
<path d="M126.162 32.6291V32.5985C126.162 30.2361 128.038 28.2815 130.571 28.2815C133.103 28.2815 134.966 30.2055 134.966 32.5679V32.5985C134.966 34.944 133.09 36.8986 130.54 36.8986C128.025 36.8986 126.162 34.9746 126.162 32.6291ZM133.076 32.6291V32.5985C133.076 31.1437 132.029 29.9403 130.544 29.9403C129.028 29.9403 128.055 31.1301 128.055 32.5679V32.5985C128.055 34.0364 129.102 35.2397 130.574 35.2397C132.104 35.2397 133.076 34.05 133.076 32.6291Z" fill="#424346"/>
<path d="M136.435 32.6291V32.5985C136.435 30.2531 138.25 28.2815 140.735 28.2815C142.281 28.2815 143.253 28.8594 144.035 29.7058L142.846 30.9737C142.268 30.3788 141.656 29.9403 140.718 29.9403C139.341 29.9403 138.325 31.1301 138.325 32.5679V32.5985C138.325 34.067 139.341 35.2397 140.796 35.2397C141.686 35.2397 142.329 34.8318 142.937 34.2234L144.079 35.3485C143.267 36.2561 142.312 36.8952 140.701 36.8952C138.25 36.8986 136.435 34.9746 136.435 32.6291Z" fill="#424346"/>
<path d="M147.849 30.1408H144.908V28.4514H152.679V30.1408H149.739V36.7082H147.845V30.1408H147.849Z" fill="#424346"/>
<path d="M154.369 28.4514H156.263V33.7372L160.202 28.4514H162V36.7082H160.107V31.2966L156.089 36.7082H154.369V28.4514Z" fill="#424346"/>
<path d="M19.1544 17.6484C18.9811 17.6484 18.8077 17.628 18.6309 17.5872C13.8516 16.4281 10.9079 11.5978 12.0636 6.81844C13.2228 2.03911 18.0531 -0.904625 22.8324 0.251116C26.2418 1.07713 28.8626 3.84071 29.5017 7.29434C29.7261 8.49427 28.934 9.64661 27.7341 9.87096C26.5376 10.0953 25.3818 9.30328 25.1575 8.10335C24.8345 6.36294 23.5122 4.96586 21.7922 4.54775C19.3822 3.96308 16.9449 5.44855 16.3603 7.86201C16.0781 9.03135 16.2651 10.2381 16.8905 11.2646C17.516 12.2912 18.5052 13.0119 19.6711 13.294C20.8574 13.5829 21.5849 14.7761 21.2993 15.9624C21.0546 16.9686 20.1504 17.6484 19.1544 17.6484Z" fill="#424346"/>
<path d="M20.7387 41.4668C20.0453 41.4668 19.3416 41.3852 18.638 41.2152C15.2285 40.3892 12.6077 37.6256 11.9687 34.172C11.7443 32.9721 12.5363 31.8198 13.7363 31.5954C14.9362 31.3745 16.0885 32.1631 16.3129 33.363C16.6358 35.1034 17.9581 36.5005 19.6781 36.9186C22.0882 37.4999 24.5255 36.0178 25.1101 33.6044C25.3923 32.435 25.2053 31.2283 24.5798 30.2017C23.9544 29.1751 22.9652 28.4545 21.7993 28.1724C20.6129 27.8834 19.8855 26.6903 20.171 25.504C20.46 24.3176 21.6531 23.5902 22.8394 23.8757C27.6188 25.0349 30.5625 29.8652 29.4068 34.6445C28.4176 38.7236 24.7566 41.4668 20.7387 41.4668Z" fill="#424346"/>
<path d="M8.93617 29.6578C8.23252 29.6578 7.52209 29.5728 6.81844 29.4028C2.03912 28.2437 -0.904625 23.4134 0.251116 18.6341C1.07713 15.2246 3.84071 12.6038 7.29433 11.9648C8.49087 11.7404 9.64661 12.5324 9.87096 13.7324C10.0953 14.9323 9.30329 16.0846 8.10335 16.309C6.36295 16.6319 4.96586 17.9542 4.54775 19.6742C3.96308 22.0843 5.44855 24.5215 7.86201 25.1062C9.02795 25.3884 10.2381 25.2014 11.2646 24.5759C12.2912 23.9505 13.0119 22.9613 13.294 21.7954C13.5795 20.609 14.7761 19.8816 15.9624 20.1671C17.1487 20.4561 17.8762 21.6492 17.5906 22.8355C17.0298 25.1504 15.5987 27.1084 13.5659 28.3491C12.145 29.2125 10.5542 29.6578 8.93617 29.6578Z" fill="#424346"/>
<path d="M33.7717 29.5391C32.7281 29.5391 31.8001 28.7946 31.603 27.7341C31.3786 26.5341 32.1706 25.3818 33.3706 25.1574C35.111 24.8345 36.5081 23.5122 36.9262 21.7922C37.5108 19.3821 36.0254 16.9449 33.6119 16.3602C32.446 16.0781 31.2359 16.265 30.2093 16.8905C29.1827 17.516 28.4621 18.5051 28.1799 19.6711C27.8944 20.8574 26.6979 21.5848 25.5115 21.2993C24.3252 21.0104 23.5978 19.8172 23.8833 18.6309C24.4442 16.316 25.8753 14.3581 27.908 13.1173C29.9407 11.8766 32.3372 11.5027 34.6521 12.0636C39.4314 13.2227 42.3752 18.053 41.2194 22.8324C40.3934 26.2418 37.6298 28.8626 34.1762 29.5017C34.0402 29.5255 33.9043 29.5391 33.7717 29.5391Z" fill="#424346"/>
</svg>

<svg width="162" height="42" viewBox="0 0 162 42" fill="none" xmlns="http://www.w3.org/2000/svg"><path d="M50.359 4.5h4.405l-.024 5.993h.796L60.349 4.5h5.266l-6.608 7.696 6.924 8.196h-5.45l-4.949-6.085h-.795l.024 6.085h-4.406V4.5h.004z" fill="#424346"/><path d="M65.315 12.492v-.044c0-4.562 3.678-8.264 8.584-8.264 4.905 0 8.535 3.654 8.535 8.22v.044c0 4.561-3.678 8.263-8.583 8.263-4.902 0-8.536-3.654-8.536-8.22zm12.601 0v-.044c0-2.315-1.635-4.29-4.065-4.29-2.43 0-4.042 1.951-4.042 4.245v.045c0 2.294 1.659 4.29 4.086 4.29 2.41 0 4.021-1.952 4.021-4.246zm7.003 3.892l5.197-12.101h4.838l5.177 12.101h1.974v7.332H98.02V20.29H87.03v3.426h-4.062v-7.332h1.95zm4.494.156h6.129l-3.067-7.763-3.062 7.763zM51.124 35.77c-.86-.86-1.33-2.094-1.33-3.91 0-3.847 1.408-5.706 4.444-6.223l2.97-.5.296 1.737-2.94.47c-1.893.329-2.753 1.155-2.988 2.814.673-.72 1.75-1.203 3.002-1.203 2.423 0 3.83 1.563 3.83 3.77 0 2.345-1.736 4.174-4.347 4.174-1.278 0-2.294-.486-2.937-1.129zm5.412-3.019c0-1.39-.891-2.376-2.329-2.376-1.563 0-2.519 1.064-2.519 2.441 0 1.438 1 2.471 2.407 2.471 1.455 0 2.44-1.08 2.44-2.535zm3.358-.139v-.03c0-2.363 1.672-4.3 4.035-4.3 2.627 0 3.956 2.063 3.956 4.442 0 .174-.017.344-.03.53h-6.068c.204 1.347 1.156 2.095 2.376 2.095.921 0 1.58-.344 2.237-.986l1.111.986c-.782.938-1.86 1.546-3.379 1.546-2.393.004-4.238-1.734-4.238-4.283zm6.115-.608c-.126-1.22-.843-2.172-2.098-2.172-1.155 0-1.971.89-2.141 2.172h4.239zm3.896 2.423c.812.578 1.781.922 2.784.922 1.19 0 1.846-.422 1.846-1.095 0-.642-.626-1-1.737-1h-1.799v-1.39h1.782c1.016 0 1.533-.374 1.533-1.016 0-.625-.595-1.016-1.625-1.016-.969 0-1.815.33-2.641.938l-1-1.204c.986-.798 2.159-1.281 3.74-1.281 2.08 0 3.392.955 3.392 2.328v.017c0 1-.626 1.547-1.455 1.877.955.251 1.672.86 1.672 1.924v.017c0 1.346-1.329 2.454-3.705 2.454-1.533 0-2.72-.438-3.739-1.19l.952-1.285zm7.957-1.797v-.032c0-2.362 1.877-4.316 4.41-4.316 2.531 0 4.394 1.924 4.394 4.286v.03c0 2.346-1.876 4.3-4.425 4.3-2.52 0-4.379-1.923-4.379-4.269zm6.91 0v-.032c0-1.454-1.046-2.658-2.532-2.658-1.515 0-2.488 1.19-2.488 2.628v.03c0 1.438 1.047 2.642 2.52 2.642 1.532 0 2.5-1.19 2.5-2.61zm3.801-4.179h7.6v8.257h-1.892v-6.554h-3.8v6.554h-1.908v-8.257zm9.412 5.881v-.03c0-1.782 1.408-2.659 3.427-2.659.921 0 1.58.14 2.219.343v-.203c0-1.173-.72-1.799-2.049-1.799-.921 0-1.611.204-2.363.517l-.516-1.485c.92-.408 1.815-.673 3.127-.673 1.234 0 2.158.33 2.736.92.609.596.891 1.47.891 2.55v4.895h-1.846v-1.033c-.564.673-1.424 1.203-2.689 1.203-1.546.003-2.937-.887-2.937-2.546zm5.677-.595v-.56a5.26 5.26 0 00-1.876-.33c-1.221 0-1.941.516-1.941 1.376v.03c0 .8.703 1.252 1.611 1.252 1.251 0 2.206-.718 2.206-1.768zm3.61-1.107v-.032c0-2.345 1.816-4.316 4.3-4.316 1.547 0 2.519.577 3.301 1.424l-1.19 1.268c-.577-.595-1.189-1.034-2.127-1.034-1.377 0-2.394 1.19-2.394 2.628v.03c0 1.469 1.017 2.642 2.472 2.642.89 0 1.533-.408 2.141-1.017l1.142 1.126c-.812.907-1.767 1.546-3.379 1.546-2.45.004-4.266-1.92-4.266-4.266zm9.37-4.179h1.907v3.236h3.814v-3.236h1.893v8.257h-1.893v-3.283h-3.814v3.283h-1.907v-8.257zm9.52 4.179v-.032c0-2.362 1.876-4.316 4.409-4.316 2.532 0 4.395 1.924 4.395 4.286v.03c0 2.346-1.876 4.3-4.426 4.3-2.515 0-4.378-1.923-4.378-4.269zm6.914 0v-.032c0-1.454-1.047-2.658-2.532-2.658-1.516 0-2.489 1.19-2.489 2.628v.03c0 1.438 1.047 2.642 2.519 2.642 1.53 0 2.502-1.19 2.502-2.61zm3.359 0v-.032c0-2.345 1.815-4.316 4.3-4.316 1.546 0 2.518.577 3.3 1.424l-1.189 1.268c-.578-.595-1.19-1.034-2.128-1.034-1.377 0-2.393 1.19-2.393 2.628v.03c0 1.469 1.016 2.642 2.471 2.642.89 0 1.533-.408 2.141-1.017l1.142 1.126c-.812.907-1.767 1.546-3.378 1.546-2.451.004-4.266-1.92-4.266-4.266zm11.414-2.49h-2.941v-1.689h7.771v1.69h-2.94v6.567h-1.894v-6.567h.004zm6.52-1.689h1.894v5.286l3.939-5.286H162v8.257h-1.893v-5.411l-4.018 5.411h-1.72v-8.257zM19.154 17.648c-.173 0-.346-.02-.523-.06-4.78-1.16-7.723-5.99-6.567-10.77C13.223 2.04 18.054-.905 22.832.251a8.93 8.93 0 016.67 7.043 2.209 2.209 0 11-4.345.81 4.514 4.514 0 00-3.365-3.556 4.503 4.503 0 00-4.902 6.717 4.466 4.466 0 002.781 2.029 2.213 2.213 0 011.628 2.668 2.212 2.212 0 01-2.145 1.686zm1.585 23.819a8.93 8.93 0 01-8.77-7.295 2.209 2.209 0 114.344-.809 4.514 4.514 0 003.365 3.556 4.507 4.507 0 005.432-3.315 4.475 4.475 0 00-.53-3.402 4.466 4.466 0 00-2.78-2.03 2.213 2.213 0 01-1.629-2.668 2.213 2.213 0 012.668-1.628c4.78 1.159 7.724 5.99 6.568 10.768-.99 4.08-4.65 6.823-8.668 6.823zM8.936 29.658a9.017 9.017 0 01-2.118-.255C2.04 28.243-.905 23.413.251 18.634a8.93 8.93 0 017.043-6.67 2.21 2.21 0 01.81 4.345 4.514 4.514 0 00-3.556 3.365 4.503 4.503 0 006.717 4.902 4.466 4.466 0 002.029-2.78 2.211 2.211 0 014.297 1.04 8.865 8.865 0 01-4.025 5.513 8.889 8.889 0 01-4.63 1.309zm24.836-.118a2.21 2.21 0 01-.401-4.383 4.514 4.514 0 003.555-3.365 4.503 4.503 0 00-6.717-4.902 4.466 4.466 0 00-2.03 2.781 2.211 2.211 0 01-4.296-1.04 8.866 8.866 0 014.025-5.514 8.859 8.859 0 016.744-1.053c4.78 1.159 7.723 5.989 6.567 10.768a8.93 8.93 0 01-7.043 6.67 2.356 2.356 0 01-.404.037z" fill="#424346"/></svg>
